X:1
T:Title
%%score { ( 1 4 ) | ( 2 3 5 6 ) }
L:1/8
Q:1/4=92
M:6/8
K:G
V:1 treble nm="Grand Piano"
V:4 treble 
V:2 bass 
V:3 bass 
V:5 bass 
V:6 bass 
V:1
 [B,D]2 [B,E] [B,G]2 [B,E] | [CG]3 [CF]3 | [CE]2 [CF] [CA]2 [CF] | [B,E]6 | %4
w: I.~H.~Merdith * * *||||
 [B,D]2 [B,DG] [DGB]2 [D^Gc] | [CEB]3 [CEA]3 | [G,^CE]2 [F,CF] [CG]2 [CA] | [CA]6 | %8
w: ||||
 [DGB]2 [DGB] [DGd]2 [B,DG] | [CDG]3 [CDF]3 | [CE]2 [CF] [Gc]2 [DAc] | [DGB]6 | %12
w: ||||
 [B,D]2 [B,DE] [B,DF]2 [B,DG] | B3 E3 | D2 E F2 B | [B,G]6 |] %16
w: ||||
V:2
 G,,2 D, G,2 D, | A,,2 D, A,2 D, | D,,2 E, F,2 D, | G,,2 D, G,2 D, | G,,2 D, G,2 E, | %5
 A,,2 E, A,2 E, | A,,2 A,, [A,,E,]2 [A,,G,] | .G,3 z3 | G,,2 D, B,,2 G,, | A,,2 E, D,2 A,, | %10
 D,,2 D, E,2 F, | G,2 D, B,,2 D,/-(3:2:2D,/G,,/4 | D,2 E, F,2 G, | z/ B,/- B,2 .[A,^C]3 | %14
 [D,F,C]2 [D,G,C] [D,A,C]2 [D,F,C] | [G,,D,]6 |] %16
V:3
 x6 | x6 | x6 | x6 | x6 | x6 | x6 | D,2- [D,-E,] [D,F,]2 D, | x6 | x6 | x6 | x6 | x6 | %13
 z2 ^C G,2- [G,A,] | x6 | x6 |] %16
V:4
 x6 | x6 | x6 | x6 | x6 | x6 | x6 | x6 | x6 | x6 | x6 | x6 | x6 | [^CG]2 G z2 C | x6 | x6 |] %16
V:5
 x6 | x6 | x6 | x6 | x6 | x6 | x6 | x6 | x6 | x6 | x6 | x6 | x6 | z/4 E,3/4- E,2 z3 | x6 | x6 |] %16
V:6
 x6 | x6 | x6 | x6 | x6 | x6 | x6 | x6 | x6 | x6 | x6 | x6 | x6 | A,,3 z3 | x6 | x6 |] %16

